Include/imtgui/Resources/Icons/Keyboard.svg

<?xml version="1.0" encoding="UTF-8" standalone="no"?>
<!-- Generator: Adobe Illustrator 18.1.1, SVG Export Plug-In . SVG Version: 6.00 Build 0)  -->

<svg
   xmlns:dc="http://purl.org/dc/elements/1.1/"
   xmlns:cc="http://creativecommons.org/ns#"
   xmlns:rdf="http://www.w3.org/1999/02/22-rdf-syntax-ns#"
   xmlns:svg="http://www.w3.org/2000/svg"
   xmlns="http://www.w3.org/2000/svg"
   xmlns:sodipodi="http://sodipodi.sourceforge.net/DTD/sodipodi-0.dtd"
   xmlns:inkscape="http://www.inkscape.org/namespaces/inkscape"
   version="1.1"
   id="Capa_1"
   x="0px"
   y="0px"
   viewBox="0 0 28.913 28.913"
   style="enable-background:new 0 0 28.913 28.913;"
   xml:space="preserve"
   sodipodi:docname="Keyboard.svg"
   inkscape:version="0.92.2 (5c3e80d, 2017-08-06)"><metadata
     id="metadata41"><rdf:RDF><cc:Work
         rdf:about=""><dc:format>image/svg+xml</dc:format><dc:type
           rdf:resource="http://purl.org/dc/dcmitype/StillImage" /></cc:Work></rdf:RDF></metadata><defs
     id="defs39" /><sodipodi:namedview
     pagecolor="#ffffff"
     bordercolor="#666666"
     borderopacity="1"
     objecttolerance="10"
     gridtolerance="10"
     guidetolerance="10"
     inkscape:pageopacity="0"
     inkscape:pageshadow="2"
     inkscape:window-width="2560"
     inkscape:window-height="1388"
     id="namedview37"
     showgrid="false"
     inkscape:zoom="8.1624183"
     inkscape:cx="-2.6340233"
     inkscape:cy="14.4565"
     inkscape:window-x="-8"
     inkscape:window-y="-8"
     inkscape:window-maximized="1"
     inkscape:current-layer="Capa_1" /><g
     id="g4"
     style="fill:#335777;fill-opacity:1"><path
       style="fill:#335777;fill-opacity:1"
       d="M28.878,14.443L21.159,1.789c-0.069-0.113-0.22-0.15-0.333-0.079l-9.961,6.074   c-0.148-0.083-0.413-0.271-0.483-0.571c-0.091-0.401,0.173-0.948,0.765-1.581c0.793-0.849,1.139-1.688,1.024-2.495   c-0.156-1.08-1.091-1.646-1.131-1.67l-0.496,0.837c0.005,0.004,0.575,0.356,0.664,0.971c0.07,0.499-0.188,1.07-0.771,1.694   C9.601,5.86,9.264,6.689,9.434,7.432c0.092,0.397,0.315,0.687,0.543,0.894l-9.861,6.018c-0.055,0.035-0.094,0.087-0.109,0.148   c-0.016,0.063-0.005,0.131,0.028,0.186l7.722,12.653c0.044,0.073,0.124,0.115,0.207,0.115c0.042,0,0.086-0.012,0.125-0.037   l20.708-12.632C28.911,14.706,28.947,14.557,28.878,14.443z M23.526,10.507l-2.155,1.314l-1.316-2.156l2.157-1.314L23.526,10.507z    M20.005,4.733l1.314,2.156l-2.155,1.315L17.85,6.048L20.005,4.733z M19.92,12.704l-2.155,1.316l-1.314-2.156l2.154-1.315   L19.92,12.704z M16.4,6.934l1.315,2.154l-2.156,1.316l-1.315-2.155L16.4,6.934z M16.151,15.003l-2.153,1.316l-1.315-2.156   l2.155-1.315L16.151,15.003z M13.947,11.387L11.791,12.7l-1.314-2.153l2.155-1.315L13.947,11.387z M12.499,17.234l-2.156,1.315   l-1.314-2.156l2.152-1.315L12.499,17.234z M8.977,11.463l1.314,2.154L8.137,14.93L6.82,12.777L8.977,11.463z M3.183,14.998   l2.154-1.315l1.314,2.156l-2.154,1.313L3.183,14.998z M5.387,18.615l2.156-1.316l1.313,2.156l-2.154,1.314L5.387,18.615z    M8.729,24.261l-1.276-2.095l9.674-5.9l1.276,2.093L8.729,24.261z M19.866,17.465l-1.314-2.155l2.156-1.316l1.314,2.156   L19.866,17.465z M23.473,15.266l-1.315-2.155l2.156-1.316l1.313,2.156L23.473,15.266z"
       id="path2" /></g><g
     id="g6" /><g
     id="g8" /><g
     id="g10" /><g
     id="g12" /><g
     id="g14" /><g
     id="g16" /><g
     id="g18" /><g
     id="g20" /><g
     id="g22" /><g
     id="g24" /><g
     id="g26" /><g
     id="g28" /><g
     id="g30" /><g
     id="g32" /><g
     id="g34" /></svg>

<?xml version="1.0" encoding="UTF-8" standalone="no"?>
<!-- Generator: Adobe Illustrator 18.1.1, SVG Export Plug-In . SVG Version: 6.00 Build 0)  -->

<svg
   xmlns:dc="http://purl.org/dc/elements/1.1/"
   xmlns:cc="http://creativecommons.org/ns#"
   xmlns:rdf="http://www.w3.org/1999/02/22-rdf-syntax-ns#"
   xmlns:svg="http://www.w3.org/2000/svg"
   xmlns="http://www.w3.org/2000/svg"
   xmlns:sodipodi="http://sodipodi.sourceforge.net/DTD/sodipodi-0.dtd"
   xmlns:inkscape="http://www.inkscape.org/namespaces/inkscape"
   version="1.1"
   id="Capa_1"
   x="0px"
   y="0px"
   viewBox="0 0 512 512"
   xml:space="preserve"
   sodipodi:docname="Keyboard.svg"
   inkscape:version="0.92.2 (5c3e80d, 2017-08-06)"
   width="512"
   height="512"><metadata
     id="metadata41"><rdf:RDF><cc:Work
         rdf:about=""><dc:format>image/svg+xml</dc:format><dc:type
           rdf:resource="http://purl.org/dc/dcmitype/StillImage" /><dc:title></dc:title></cc:Work></rdf:RDF></metadata><defs
     id="defs39" /><sodipodi:namedview
     pagecolor="#ffffff"
     bordercolor="#666666"
     borderopacity="1"
     objecttolerance="10"
     gridtolerance="10"
     guidetolerance="10"
     inkscape:pageopacity="0"
     inkscape:pageshadow="2"
     inkscape:window-width="2048"
     inkscape:window-height="1228"
     id="namedview37"
     showgrid="false"
     inkscape:zoom="0.72146266"
     inkscape:cx="-226.69901"
     inkscape:cy="185.88506"
     inkscape:window-x="-8"
     inkscape:window-y="-8"
     inkscape:window-maximized="1"
     inkscape:current-layer="Capa_1" /><g
     id="g4"
     style="fill:#335777;fill-opacity:1;stroke-width:0.06851725"
     transform="matrix(13.834474,0,0,15.397051,56.003418,33.412532)"><path
       style="fill:#335777;fill-opacity:1;stroke-width:0.06851725"
       d="M 28.878,14.443 21.159,1.789 C 21.09,1.676 20.939,1.639 20.826,1.71 L 10.865,7.784 C 10.717,7.701 10.452,7.513 10.382,7.213 10.291,6.812 10.555,6.265 11.147,5.632 11.94,4.783 12.286,3.944 12.171,3.137 12.015,2.057 11.08,1.491 11.04,1.467 l -0.496,0.837 c 0.005,0.004 0.575,0.356 0.664,0.971 0.07,0.499 -0.188,1.07 -0.771,1.694 C 9.601,5.86 9.264,6.689 9.434,7.432 9.526,7.829 9.749,8.119 9.977,8.326 l -9.861,6.018 c -0.055,0.035 -0.094,0.087 -0.109,0.148 -0.016,0.063 -0.005,0.131 0.028,0.186 l 7.722,12.653 c 0.044,0.073 0.124,0.115 0.207,0.115 0.042,0 0.086,-0.012 0.125,-0.037 L 28.797,14.777 c 0.114,-0.071 0.15,-0.22 0.081,-0.334 z M 23.526,10.507 21.371,11.821 20.055,9.665 22.212,8.351 Z M 20.005,4.733 21.319,6.889 19.164,8.204 17.85,6.048 Z m -0.085,7.971 -2.155,1.316 -1.314,-2.156 2.154,-1.315 z m -3.52,-5.77 1.315,2.154 -2.156,1.316 -1.315,-2.155 z m -0.249,8.069 -2.153,1.316 -1.315,-2.156 2.155,-1.315 z M 13.947,11.387 11.791,12.7 10.477,10.547 12.632,9.232 Z m -1.448,5.847 -2.156,1.315 -1.314,-2.156 2.152,-1.315 z M 8.977,11.463 10.291,13.617 8.137,14.93 6.82,12.777 Z m -5.794,3.535 2.154,-1.315 1.314,2.156 -2.154,1.313 z m 2.204,3.617 2.156,-1.316 1.313,2.156 -2.154,1.314 z m 3.342,5.646 -1.276,-2.095 9.674,-5.9 1.276,2.093 z m 11.137,-6.796 -1.314,-2.155 2.156,-1.316 1.314,2.156 z m 3.607,-2.199 -1.315,-2.155 2.156,-1.316 1.313,2.156 z"
       id="path2"
       inkscape:connector-curvature="0" /></g><g
     id="g6"
     transform="translate(0,483.087)" /><g
     id="g8"
     transform="translate(0,483.087)" /><g
     id="g10"
     transform="translate(0,483.087)" /><g
     id="g12"
     transform="translate(0,483.087)" /><g
     id="g14"
     transform="translate(0,483.087)" /><g
     id="g16"
     transform="translate(0,483.087)" /><g
     id="g18"
     transform="translate(0,483.087)" /><g
     id="g20"
     transform="translate(0,483.087)" /><g
     id="g22"
     transform="translate(0,483.087)" /><g
     id="g24"
     transform="translate(0,483.087)" /><g
     id="g26"
     transform="translate(0,483.087)" /><g
     id="g28"
     transform="translate(0,483.087)" /><g
     id="g30"
     transform="translate(0,483.087)" /><g
     id="g32"
     transform="translate(0,483.087)" /><g
     id="g34"
     transform="translate(0,483.087)" /></svg>
